umbrella-outline.svg

<svg  viewBox="0 0 24 24" fill="currentColor"><path  d="M12,4C8.9,4 6.18,6.03 5.3,9H18.7C17.82,6.04 15.09,4 12,4M12,2A9,9 0 0,1 21,11H13V19A3,3 0 0,1 10,22A3,3 0 0,1 7,19V18H9V19A1,1 0 0,0 10,20A1,1 0 0,0 11,19V11H3A9,9 0 0,1 12,2Z"/></svg>

<svg fill="currentColor" viewBox="0 0 24 24"><path d="M12 4C8.9 4 6.18 6.03 5.3 9h13.4A7 7 0 0 0 12 4m0-2a9 9 0 0 1 9 9h-8v8a3 3 0 0 1-3 3 3 3 0 0 1-3-3v-1h2v1a1 1 0 0 0 1 1 1 1 0 0 0 1-1v-8H3a9 9 0 0 1 9-9"/></svg>
